; generated by Slic3r 1.3.0 on 2020-04-27 at 22:44:28

; external perimeters extrusion width = 0.55mm (4.37mm^3/s)
; perimeters extrusion width = 0.70mm (11.44mm^3/s)
; infill extrusion width = 0.63mm (13.45mm^3/s)
; solid infill extrusion width = 0.70mm (3.81mm^3/s)
; top infill extrusion width = 0.70mm (2.86mm^3/s)

M107
M104 S200 ; set temperature
G28 ; home all axes
G1 Z5 F5000 ; lift nozzle

; Filament gcode
;G1 is the controlled motion in X-Y plane
;The x represents the x-axis on the print bed
;The y represents the y-axis on the print bed
;F####.#### is the code that tell the extruder (or print bed) to move one layer up which is set in the slicer by the layer height setting
; the print phase consists of many movements in the X-Y plane (printing a single layer), then one movement in the Z direction (move to next layer) 
followed by many movements in the X -Y plane again (print the next layer).
M109 S200 ; set temperature and wait for it to be reached
G21 ; set units to millimeters
G90 ; use absolute coordinates
M82 ; use absolute distances for extrusion
G92 E0
G1 Z0.350 F7800.000
G1 E-2.00000 F2400.00000
G92 E0
G1 X89.915 Y90.753 F7800.000
G1 E2.00000 F2400.00000
G1 F1800
G1 X91.668 Y89.274 E2.07096
G1 X93.820 Y88.481 E2.14192
G1 X95.000 Y88.375 E2.17858
G1 X105.000 Y88.375 E2.48799
G1 X107.259 Y88.772 E2.55895
G1 X109.247 Y89.915 E2.62991
G1 X110.726 Y91.668 E2.70088
G1 X111.519 Y93.820 E2.77184
G1 X111.625 Y95.000 E2.80849
G1 X111.625 Y105.000 E3.11790
G1 X111.228 Y107.259 E3.18886
G1 X110.085 Y109.247 E3.25983
G1 X108.332 Y110.726 E3.33079
G1 X106.180 Y111.519 E3.40175
G1 X105.000 Y111.625 E3.43840
G1 X95.000 Y111.625 E3.74782
G1 X92.741 Y111.228 E3.81878
G1 X90.753 Y110.085 E3.88974
G1 X89.274 Y108.332 E3.96070
G1 X88.481 Y106.180 E4.03167
G1 X88.375 Y105.000 E4.06832
G1 X88.375 Y95.000 E4.37773
G1 X88.772 Y92.741 E4.44869
G1 X89.878 Y90.818 E4.51733
G1 E2.51733 F2400.00000
G92 E0
G1 X103.400 Y103.400 F7800.000
G1 E2.00000 F2400.00000
G1 F1800
G1 X96.600 Y103.400 E2.21041
G1 X96.600 Y96.600 E2.42083
G1 X103.400 Y96.600 E2.63124
G1 X103.400 Y103.325 E2.83934
G1 X104.025 Y104.025 F7800.000
G1 F1800
G1 X95.975 Y104.025 E3.08842
G1 X95.975 Y95.975 E3.33751
G1 X104.025 Y95.975 E3.58659
G1 X104.025 Y103.950 E3.83336
G1 X104.650 Y104.650 F7800.000
G1 F1800
G1 X95.350 Y104.650 E4.12111
G1 X95.350 Y95.350 E4.40886
G1 X104.650 Y95.350 E4.69662
G1 X104.650 Y104.575 E4.98205
G1 X104.167 Y104.521 F7800.000
G1 E2.98205 F2400.00000
G92 E0
G1 X102.532 Y103.018 F7800.000
G1 E2.00000 F2400.00000
G1 F1800
G1 X103.018 Y102.532 E2.02227
G1 X103.018 Y101.607 E2.05223
G1 X101.607 Y103.018 E2.11688
G1 X100.682 Y103.018 E2.14684
G1 X103.018 Y100.682 E2.25386
G1 X103.018 Y99.757 E2.28383
G1 X99.757 Y103.018 E2.43322
G1 X98.832 Y103.018 E2.46318
G1 X103.018 Y98.832 E2.65495
G1 X103.018 Y97.907 E2.68492
G1 X97.907 Y103.018 E2.91906
G1 X96.982 Y103.018 E2.94902
G1 X103.018 Y96.982 E3.22554
G1 X102.093 Y96.982 E3.25551
G1 X96.982 Y102.093 E3.48965
G1 X96.982 Y101.168 E3.51961
G1 X101.168 Y96.982 E3.71138
G1 X100.243 Y96.982 E3.74135
G1 X96.982 Y100.243 E3.89074
G1 X96.982 Y99.318 E3.92071
G1 X99.318 Y96.982 E4.02773
G1 X98.393 Y96.982 E4.05769
G1 X96.982 Y98.393 E4.12234
G1 X96.982 Y97.468 E4.15230
G1 X97.468 Y96.982 E4.17457
G1 Z0.650 F7800.000
G1 X103.529 Y103.529 F7800.000
G1 F900
G1 X96.471 Y103.529 E4.36496
G1 X96.471 Y96.471 E4.55534
G1 X103.529 Y96.471 E4.74573
G1 X103.529 Y103.454 E4.93410
G1 X104.164 Y104.164 F7800.000
G1 F900
G1 X95.836 Y104.164 E5.15878
G1 X95.836 Y95.836 E5.38346
G1 X104.164 Y95.836 E5.60814
G1 X104.164 Y104.089 E5.83080
G1 X104.725 Y104.725 F7800.000
G1 F900
G1 X95.275 Y104.725 E6.02557
G1 X95.275 Y95.275 E6.22033
G1 X104.725 Y95.275 E6.41510
G1 X104.725 Y104.650 E6.60832
G1 X104.242 Y104.596 F7800.000
G1 X103.140 Y97.354 F7800.000
G1 F1200
G1 X102.646 Y96.860 E6.62856
G1 X101.681 Y96.860 E6.65647
G1 X103.140 Y98.319 E6.71618
G1 X103.140 Y99.283 E6.74409
G1 X100.717 Y96.860 E6.84327
G1 X99.753 Y96.860 E6.87118
G1 X103.140 Y100.247 E7.00984
G1 X103.140 Y101.212 E7.03775
G1 X98.788 Y96.860 E7.21587
G1 X97.824 Y96.860 E7.24378
G1 X103.140 Y102.176 E7.46137
G1 X103.140 Y103.140 E7.48928
G1 X96.860 Y96.860 E7.74634
G1 X96.860 Y97.824 E7.77425
G1 X102.176 Y103.140 E7.99184
G1 X101.212 Y103.140 E8.01975
G1 X96.860 Y98.788 E8.19788
G1 X96.860 Y99.753 E8.22579
G1 X100.247 Y103.140 E8.36444
G1 X99.283 Y103.140 E8.39235
G1 X96.860 Y100.717 E8.49153
G1 X96.860 Y101.681 E8.51944
G1 X98.319 Y103.140 E8.57915
G1 X97.354 Y103.140 E8.60706
G1 X96.860 Y102.646 E8.62730
G1 Z0.950 F7800.000
G1 X103.529 Y103.529 F7800.000
G1 F900
G1 X96.471 Y103.529 E8.81769
G1 X96.471 Y96.471 E9.00808
G1 X103.529 Y96.471 E9.19847
G1 X103.529 Y103.454 E9.38683
G1 X104.164 Y104.164 F7800.000
G1 F900
G1 X95.836 Y104.164 E9.61151
G1 X95.836 Y95.836 E9.83619
G1 X104.164 Y95.836 E10.06087
G1 X104.164 Y104.089 E10.28353
G1 X104.725 Y104.725 F7800.000
G1 F900
G1 X95.275 Y104.725 E10.47830
G1 X95.275 Y95.275 E10.67307
G1 X104.725 Y95.275 E10.86783
G1 X104.725 Y104.650 E11.06106
G1 X104.242 Y104.596 F7800.000
G1 X102.646 Y103.140 F7800.000
G1 F1200
G1 X103.140 Y102.646 E11.08130
G1 X103.140 Y101.681 E11.10921
G1 X101.681 Y103.140 E11.16892
G1 X100.717 Y103.140 E11.19683
G1 X103.140 Y100.717 E11.29601
G1 X103.140 Y99.753 E11.32392
G1 X99.753 Y103.140 E11.46257
G1 X98.788 Y103.140 E11.49048
G1 X103.140 Y98.788 E11.66860
G1 X103.140 Y97.824 E11.69651
G1 X97.824 Y103.140 E11.91410
G1 X96.860 Y103.140 E11.94201
G1 X103.140 Y96.860 E12.19908
G1 X102.176 Y96.860 E12.22699
G1 X96.860 Y102.176 E12.44458
G1 X96.860 Y101.212 E12.47249
G1 X101.212 Y96.860 E12.65061
G1 X100.247 Y96.860 E12.67852
G1 X96.860 Y100.247 E12.81717
G1 X96.860 Y99.283 E12.84508
G1 X99.283 Y96.860 E12.94426
G1 X98.319 Y96.860 E12.97217
G1 X96.860 Y98.319 E13.03188
G1 X96.860 Y97.354 E13.05979
G1 X97.354 Y96.860 E13.08004
M106 S237.15
G1 Z1.250 F7800.000
G1 X103.529 Y103.529 F7800.000
G1 F900
G1 X96.471 Y103.529 E13.27042
G1 X96.471 Y96.471 E13.46081
G1 X103.529 Y96.471 E13.65120
G1 X103.529 Y103.454 E13.83956
G1 X104.164 Y104.164 F7800.000
G1 F900
G1 X95.836 Y104.164 E14.06424
G1 X95.836 Y95.836 E14.28892
G1 X104.164 Y95.836 E14.51361
G1 X104.164 Y104.089 E14.73626
G1 X104.725 Y104.725 F7800.000
G1 F900
G1 X95.275 Y104.725 E14.93103
G1 X95.275 Y95.275 E15.12580
G1 X104.725 Y95.275 E15.32057
G1 X104.725 Y104.650 E15.51379
G1 X104.242 Y104.596 F7800.000
G1 X103.140 Y97.354 F7800.000
G1 F1200
G1 X102.646 Y96.860 E15.53403
G1 X101.681 Y96.860 E15.56194
G1 X103.140 Y98.319 E15.62165
G1 X103.140 Y99.283 E15.64956
G1 X100.717 Y96.860 E15.74874
G1 X99.753 Y96.860 E15.77665
G1 X103.140 Y100.247 E15.91530
G1 X103.140 Y101.212 E15.94321
G1 X98.788 Y96.860 E16.12133
G1 X97.824 Y96.860 E16.14924
G1 X103.140 Y102.176 E16.36683
G1 X103.140 Y103.140 E16.39474
G1 X96.860 Y96.860 E16.65180
G1 X96.860 Y97.824 E16.67971
G1 X102.176 Y103.140 E16.89730
G1 X101.212 Y103.140 E16.92521
G1 X96.860 Y98.788 E17.10333
G1 X96.860 Y99.753 E17.13124
G1 X100.247 Y103.140 E17.26989
G1 X99.283 Y103.140 E17.29780
G1 X96.860 Y100.717 E17.39699
G1 X96.860 Y101.681 E17.42489
G1 X98.319 Y103.140 E17.48461
G1 X97.354 Y103.140 E17.51252
G1 X96.860 Y102.646 E17.53276
G1 Z1.550 F7800.000
G1 X103.529 Y103.529 F7800.000
G1 F900
G1 X96.471 Y103.529 E17.72314
G1 X96.471 Y96.471 E17.91353
G1 X103.529 Y96.471 E18.10392
G1 X103.529 Y103.454 E18.29228
G1 X104.164 Y104.164 F7800.000
G1 F900
G1 X95.836 Y104.164 E18.51696
G1 X95.836 Y95.836 E18.74165
G1 X104.164 Y95.836 E18.96633
G1 X104.164 Y104.089 E19.18898
G1 X104.725 Y104.725 F7800.000
G1 F900
G1 X95.275 Y104.725 E19.38375
G1 X95.275 Y95.275 E19.57852
G1 X104.725 Y95.275 E19.77329
G1 X104.725 Y104.650 E19.96651
G1 X104.242 Y104.596 F7800.000
G1 X102.646 Y103.140 F7800.000
G1 F1200
G1 X103.140 Y102.646 E19.98675
G1 X103.140 Y101.681 E20.01466
G1 X101.681 Y103.140 E20.07437
G1 X100.717 Y103.140 E20.10228
G1 X103.140 Y100.717 E20.20146
G1 X103.140 Y99.753 E20.22937
G1 X99.753 Y103.140 E20.36802
G1 X98.788 Y103.140 E20.39593
G1 X103.140 Y98.788 E20.57405
G1 X103.140 Y97.824 E20.60196
G1 X97.824 Y103.140 E20.81955
G1 X96.860 Y103.140 E20.84746
G1 X103.140 Y96.860 E21.10452
G1 X102.176 Y96.860 E21.13243
G1 X96.860 Y102.176 E21.35002
G1 X96.860 Y101.212 E21.37793
G1 X101.212 Y96.860 E21.55605
G1 X100.247 Y96.860 E21.58396
G1 X96.860 Y100.247 E21.72261
G1 X96.860 Y99.283 E21.75052
G1 X99.283 Y96.860 E21.84971
G1 X98.319 Y96.860 E21.87762
G1 X96.860 Y98.319 E21.93733
G1 X96.860 Y97.354 E21.96524
G1 X97.354 Y96.860 E21.98548
G1 Z1.850 F7800.000
G1 X103.529 Y103.529 F7800.000
G1 F900
G1 X96.471 Y103.529 E22.17586
G1 X96.471 Y96.471 E22.36625
G1 X103.529 Y96.471 E22.55664
G1 X103.529 Y103.454 E22.74500
G1 X104.164 Y104.164 F7800.000
G1 F900
G1 X95.836 Y104.164 E22.96968
G1 X95.836 Y95.836 E23.19437
G1 X104.164 Y95.836 E23.41905
G1 X104.164 Y104.089 E23.64170
G1 X104.725 Y104.725 F7800.000
G1 F900
G1 X95.275 Y104.725 E23.83647
G1 X95.275 Y95.275 E24.03124
G1 X104.725 Y95.275 E24.22601
G1 X104.725 Y104.650 E24.41923
G1 X104.242 Y104.596 F7800.000
G1 X103.140 Y97.354 F7800.000
G1 F1200
G1 X102.646 Y96.860 E24.43947
G1 X101.681 Y96.860 E24.46738
G1 X103.140 Y98.319 E24.52709
G1 X103.140 Y99.283 E24.55500
G1 X100.717 Y96.860 E24.65418
G1 X99.753 Y96.860 E24.68209
G1 X103.140 Y100.247 E24.82074
G1 X103.140 Y101.212 E24.84865
G1 X98.788 Y96.860 E25.02677
G1 X97.824 Y96.860 E25.05468
G1 X103.140 Y102.176 E25.27227
G1 X103.140 Y103.140 E25.30018
G1 X96.860 Y96.860 E25.55724
G1 X96.860 Y97.824 E25.58515
G1 X102.176 Y103.140 E25.80274
G1 X101.212 Y103.140 E25.83065
G1 X96.860 Y98.788 E26.00877
G1 X96.860 Y99.753 E26.03668
G1 X100.247 Y103.140 E26.17534
G1 X99.283 Y103.140 E26.20324
G1 X96.860 Y100.717 E26.30243
G1 X96.860 Y101.681 E26.33034
G1 X98.319 Y103.140 E26.39005
G1 X97.354 Y103.140 E26.41796
G1 X96.860 Y102.646 E26.43820
G1 Z2.150 F7800.000
G1 X103.529 Y103.529 F7800.000
G1 F900
G1 X96.471 Y103.529 E26.62858
G1 X96.471 Y96.471 E26.81897
G1 X103.529 Y96.471 E27.00936
G1 X103.529 Y103.454 E27.19772
G1 X104.164 Y104.164 F7800.000
G1 F900
G1 X95.836 Y104.164 E27.42240
G1 X95.836 Y95.836 E27.64709
G1 X104.164 Y95.836 E27.87177
G1 X104.164 Y104.089 E28.09442
G1 X104.725 Y104.725 F7800.000
G1 F900
G1 X95.275 Y104.725 E28.28919
G1 X95.275 Y95.275 E28.48396
G1 X104.725 Y95.275 E28.67873
G1 X104.725 Y104.650 E28.87195
G1 X104.242 Y104.596 F7800.000
G1 X102.646 Y103.140 F7800.000
G1 F1200
G1 X103.140 Y102.646 E28.89219
G1 X103.140 Y101.681 E28.92010
G1 X101.681 Y103.140 E28.97981
G1 X100.717 Y103.140 E29.00772
G1 X103.140 Y100.717 E29.10690
G1 X103.140 Y99.753 E29.13481
G1 X99.753 Y103.140 E29.27346
G1 X98.788 Y103.140 E29.30137
G1 X103.140 Y98.788 E29.47949
G1 X103.140 Y97.824 E29.50740
G1 X97.824 Y103.140 E29.72499
G1 X96.860 Y103.140 E29.75290
G1 X103.140 Y96.860 E30.00996
G1 X102.176 Y96.860 E30.03787
G1 X96.860 Y102.176 E30.25546
G1 X96.860 Y101.212 E30.28337
G1 X101.212 Y96.860 E30.46149
G1 X100.247 Y96.860 E30.48940
G1 X96.860 Y100.247 E30.62806
G1 X96.860 Y99.283 E30.65597
G1 X99.283 Y96.860 E30.75515
G1 X98.319 Y96.860 E30.78306
G1 X96.860 Y98.319 E30.84277
G1 X96.860 Y97.354 E30.87068
G1 X97.354 Y96.860 E30.89092
G1 Z2.450 F7800.000
G1 X103.529 Y103.529 F7800.000
G1 F900
G1 X96.471 Y103.529 E31.08130
G1 X96.471 Y96.471 E31.27169
G1 X103.529 Y96.471 E31.46208
G1 X103.529 Y103.454 E31.65044
G1 X104.164 Y104.164 F7800.000
G1 F900
G1 X95.836 Y104.164 E31.87512
G1 X95.836 Y95.836 E32.09981
G1 X104.164 Y95.836 E32.32449
G1 X104.164 Y104.089 E32.54714
G1 X104.725 Y104.725 F7800.000
G1 F900
G1 X95.275 Y104.725 E32.74191
G1 X95.275 Y95.275 E32.93668
G1 X104.725 Y95.275 E33.13145
G1 X104.725 Y104.650 E33.32467
G1 X104.242 Y104.596 F7800.000
G1 X103.140 Y97.354 F7800.000
G1 F1200
G1 X102.646 Y96.860 E33.34491
G1 X101.681 Y96.860 E33.37282
G1 X103.140 Y98.319 E33.43253
G1 X103.140 Y99.283 E33.46044
G1 X100.717 Y96.860 E33.55962
G1 X99.753 Y96.860 E33.58753
G1 X103.140 Y100.247 E33.72618
G1 X103.140 Y101.212 E33.75409
G1 X98.788 Y96.860 E33.93221
G1 X97.824 Y96.860 E33.96012
G1 X103.140 Y102.176 E34.17771
G1 X103.140 Y103.140 E34.20562
G1 X96.860 Y96.860 E34.46268
G1 X96.860 Y97.824 E34.49059
G1 X102.176 Y103.140 E34.70818
G1 X101.212 Y103.140 E34.73609
G1 X96.860 Y98.788 E34.91422
G1 X96.860 Y99.753 E34.94212
G1 X100.247 Y103.140 E35.08078
G1 X99.283 Y103.140 E35.10869
G1 X96.860 Y100.717 E35.20787
G1 X96.860 Y101.681 E35.23578
G1 X98.319 Y103.140 E35.29549
G1 X97.354 Y103.140 E35.32340
G1 X96.860 Y102.646 E35.34364
G1 Z2.750 F7800.000
G1 X103.529 Y103.529 F7800.000
G1 F900
G1 X96.471 Y103.529 E35.53403
G1 X96.471 Y96.471 E35.72441
G1 X103.529 Y96.471 E35.91480
G1 X103.529 Y103.454 E36.10316
G1 X104.164 Y104.164 F7800.000
G1 F900
G1 X95.836 Y104.164 E36.32785
G1 X95.836 Y95.836 E36.55253
G1 X104.164 Y95.836 E36.77721
G1 X104.164 Y104.089 E36.99987
G1 X104.725 Y104.725 F7800.000
G1 F900
G1 X95.275 Y104.725 E37.19463
G1 X95.275 Y95.275 E37.38940
G1 X104.725 Y95.275 E37.58417
G1 X104.725 Y104.650 E37.77739
G1 X104.242 Y104.596 F7800.000
G1 X102.646 Y103.140 F7800.000
G1 F1200
G1 X103.140 Y102.646 E37.79763
G1 X103.140 Y101.681 E37.82554
G1 X101.681 Y103.140 E37.88525
G1 X100.717 Y103.140 E37.91316
G1 X103.140 Y100.717 E38.01234
G1 X103.140 Y99.753 E38.04025
G1 X99.753 Y103.140 E38.17890
G1 X98.788 Y103.140 E38.20681
G1 X103.140 Y98.788 E38.38493
G1 X103.140 Y97.824 E38.41284
G1 X97.824 Y103.140 E38.63043
G1 X96.860 Y103.140 E38.65834
G1 X103.140 Y96.860 E38.91540
G1 X102.176 Y96.860 E38.94331
G1 X96.860 Y102.176 E39.16090
G1 X96.860 Y101.212 E39.18881
G1 X101.212 Y96.860 E39.36694
G1 X100.247 Y96.860 E39.39485
G1 X96.860 Y100.247 E39.53350
G1 X96.860 Y99.283 E39.56141
G1 X99.283 Y96.860 E39.66059
G1 X98.319 Y96.860 E39.68850
G1 X96.860 Y98.319 E39.74821
G1 X96.860 Y97.354 E39.77612
G1 X97.354 Y96.860 E39.79636
G1 Z3.050 F7800.000
G1 X103.529 Y103.529 F7800.000
G1 F900
G1 X96.471 Y103.529 E39.98675
G1 X96.471 Y96.471 E40.17713
G1 X103.529 Y96.471 E40.36752
G1 X103.529 Y103.454 E40.55588
G1 X104.164 Y104.164 F7800.000
G1 F900
G1 X95.836 Y104.164 E40.78057
G1 X95.836 Y95.836 E41.00525
G1 X104.164 Y95.836 E41.22993
G1 X104.164 Y104.089 E41.45259
G1 X104.725 Y104.725 F7800.000
G1 F900
G1 X95.275 Y104.725 E41.64735
G1 X95.275 Y95.275 E41.84212
G1 X104.725 Y95.275 E42.03689
G1 X104.725 Y104.650 E42.23011
G1 X104.242 Y104.596 F7800.000
G1 X103.140 Y97.354 F7800.000
G1 F1200
G1 X102.646 Y96.860 E42.25035
G1 X101.681 Y96.860 E42.27826
G1 X103.140 Y98.319 E42.33797
G1 X103.140 Y99.283 E42.36588
G1 X100.717 Y96.860 E42.46506
G1 X99.753 Y96.860 E42.49297
G1 X103.140 Y100.247 E42.63162
G1 X103.140 Y101.212 E42.65953
G1 X98.788 Y96.860 E42.83765
G1 X97.824 Y96.860 E42.86556
G1 X103.140 Y102.176 E43.08315
G1 X103.140 Y103.140 E43.11106
G1 X96.860 Y96.860 E43.36812
G1 X96.860 Y97.824 E43.39603
G1 X102.176 Y103.140 E43.61362
G1 X101.212 Y103.140 E43.64153
G1 X96.860 Y98.788 E43.81966
G1 X96.860 Y99.753 E43.84757
G1 X100.247 Y103.140 E43.98622
G1 X99.283 Y103.140 E44.01413
G1 X96.860 Y100.717 E44.11331
G1 X96.860 Y101.681 E44.14122
G1 X98.319 Y103.140 E44.20093
G1 X97.354 Y103.140 E44.22884
G1 X96.860 Y102.646 E44.24908
G1 Z3.350 F7800.000
G1 X103.529 Y103.529 F7800.000
G1 F900
G1 X96.471 Y103.529 E44.43947
G1 X96.471 Y96.471 E44.62985
G1 X103.529 Y96.471 E44.82024
G1 X103.529 Y103.454 E45.00860
G1 X104.164 Y104.164 F7800.000
G1 F900
G1 X95.836 Y104.164 E45.23329
G1 X95.836 Y95.836 E45.45797
G1 X104.164 Y95.836 E45.68265
G1 X104.164 Y104.089 E45.90531
